src/assets/svelte.svg

<svg height="125" preserveAspectRatio="xMidYMid" viewBox="0 0 512 125" width="512" xmlns="http://www.w3.org/2000/svg"><path d="m166.662789 96.8652521c-5.42099.136416-10.756322-1.3712041-15.304226-4.3245595-4.2489-2.8019546-7.404126-6.9807478-8.935683-11.8344505l9.315834-3.4225917c1.290789 2.9813984 3.400294 5.5358097 6.083877 7.3669995 2.72383 1.8250812 5.941957 2.7706982 9.220127 2.7092497 3.151217.1645671 6.260943-.7767389 8.791899-2.6612845 2.232824-1.8746682 3.448682-4.6940523 3.279477-7.6045944.012858-1.3371292-.296886-2.6576449-.902972-3.849593-.527329-1.066492-1.216724-2.044837-2.043649-2.9002178-1.046066-.9521535-2.232417-1.7376738-3.517407-2.3289865-1.585006-.7908671-2.899809-1.3929226-3.944408-1.8061665-1.045714-.4105667-2.582384-.9650289-4.610008-1.6633865-2.535831-.886723-4.437073-1.5835189-5.703724-2.0903878-1.716434-.7304871-3.383396-1.5721468-4.990271-2.51962-1.729357-.9175307-3.301647-2.1044766-4.657862-3.5162911-1.173432-1.3785008-2.119928-2.9350209-2.803953-4.6111233-2.691707-6.5531183-.892845-14.093302 4.46734-18.7254797 3.802855-3.3584523 8.967696-5.0381247 15.494525-5.0381247 5.44884 0 9.932131 1.2040366 13.449872 3.6121098 3.414384 2.2700309 5.921324 5.6689127 7.081774 9.6013944l-9.125312 3.0413246c-.91676-2.0595051-2.464902-3.7739895-4.42049-4.8954562-2.364988-1.3119972-5.043427-1.9530746-7.746147-1.8540201-2.650863-.1520632-5.276775.5838986-7.462484 2.0915033-1.811468 1.4039564-2.822941 3.6042342-2.709138 5.8932427.016103 1.7491591.77632 3.4086951 2.090388 4.5632697 1.263367 1.2434483 2.745854 2.2424634 4.372636 2.9466214 1.521797.6338835 3.835166 1.4893362 6.94011 2.5663582 1.899791.6982832 3.309372 1.2211776 4.228741 1.5686832s2.266148.9335727 4.040338 1.7582013c1.422324.629426 2.789489 1.3767568 4.087188 2.2341717 1.162021.8358126 2.272934 1.7404787 3.326773 2.7091381 1.145918.9939493 2.125081 2.1651793 2.900217 3.4691067.737897 1.3525524 1.312022 2.7882014 1.710237 4.2765944.485356 1.7488565.725615 3.5566186.714308 5.3715381 0 6.2112256-2.123517 11.0746678-6.369733 14.5903268-4.245845 3.518113-9.695243 5.2769464-16.348194 5.2765002zm60.929227-1.1404549-22.813671-66.5396985h10.647034l15.113259 46.3878693c.835754 2.4946585 1.533971 5.0333033 2.091503 7.6044828.556584-2.5714124 1.254816-5.110109 2.091503-7.6044828l14.923741-46.3878693h10.551215l-22.718968 66.5396985zm52.754963 0v-66.5392523h41.254819v9.315946h-31.368199v18.2505133h20.245752v9.315946h-20.245752v20.3409011h33.458698v9.3159459zm68.534379.0001116v-66.5393639h9.886732v57.0338998h32.508653v9.5054641zm79.6556-57.0340114v57.0338998h-9.88662v-57.0338998h-18.819737v-9.5053525h47.527209v9.5054641zm39.257125 57.0338998v-66.5392523h41.25493v9.315946h-31.367641v18.2505133h20.245752v9.315946h-20.245752v20.3409011h33.458587v9.3159459z" fill="#4a4a55"/><path d="m97.328731 16.5299981c-11.6008715-16.60385883-34.5125926-21.52530545-51.0788602-10.97040872l-29.0944279 18.54321222c-7.94731687 4.9997426-13.42133448 13.1155111-15.07968274 22.3571102-1.38780805 7.6987943-.16795653 15.6405474 3.46642963 22.5679338-2.49038311 3.7778199-4.18891772 8.0213673-4.99294815 12.4741717-1.67442584 9.419022.51578475 19.1154647 6.07617952 26.9003017 11.60332554 16.60542 34.51526974 21.524748 51.07897164 10.970409l29.0943164-18.543213c7.9478096-4.9992336 13.4219908-13.1152446 15.0796828-22.3571099 1.387436-7.6987539.168386-15.6403383-3.4643103-22.5684915 2.4896953-3.7777535 4.1875133-8.0211216 4.9908283-12.473614 1.67552-9.4190472-.514786-19.1159119-6.076179-26.9003015" fill="#ff3e00"/><path d="m43.4074342 109.964532c-9.37789 2.43815-19.2810026-1.232758-24.8038902-9.19436-3.3446307-4.6812449-4.6621319-10.5126134-3.6549438-16.1770802.1688115-.9206016.4011235-1.8284187.6952715-2.7169464l.5479181-1.6707486 1.4904889 1.0948322c3.4424545 2.5293541 7.2914514 4.4524568 11.3811242 5.6864349l1.081335.3280592-.0994997 1.0792157c-.1321773 1.5353166.2835467 3.0678443 1.1734727 4.3258981 1.6621067 2.3983206 4.6439104 3.5050511 7.4682841 2.771939.6322676-.1690244 1.2349156-.4338961 1.7869804-.7854013l29.0945394-18.5410928c1.439453-.9064165 2.4315041-2.3762568 2.7336785-4.0502658.3015922-1.7072811-.0953431-3.4641496-1.1016366-4.8759356-1.663084-2.3987726-4.6455728-3.5059676-7.4710728-2.7735006-.6314778.1690161-1.2333641.4336956-1.7847494.7848436l-11.1025918 7.0775355c-1.8256366 1.1607732-3.8179622 2.0356978-5.9079669 2.5944679-9.3781549 2.4384177-19.281657-1.2325629-24.804671-9.1944714-3.3446009-4.6812163-4.6621008-10.5125383-3.6549438-16.1769691.9971355-5.5572214 4.2892816-10.4372509 9.0687582-13.4428444l29.0926431-18.5426545c1.8264355-1.1627111 3.8202259-2.0387374 5.9119826-2.5975913 9.3779599-2.4382522 19.2811931 1.2326668 24.8041133 9.1943599 3.3445837 4.6812664 4.6620805 10.512615 3.6549438 16.1770807-.1695395.9204417-.4018388 1.8282091-.6952715 2.7169464l-.5479181 1.6707485-1.4898196-1.093159c-3.4421859-2.5308441-7.29156-4.4548332-11.381905-5.6888889l-1.0812235-.3281708.0994998-1.0792157c.1311088-1.5351856-.2845185-3.0673173-1.1734728-4.3257865-1.6621066-2.3983206-4.6439104-3.5050511-7.4682841-2.771939-.6322675.1690244-1.2349155.4338961-1.7869804.7854013l-29.0950971 18.5418737c-1.4397028.9058436-2.4314061 2.3760684-2.7320053 4.0502658-.3034586 1.7072008.0928098 3.4646993 1.0995172 4.8764932 1.663084 2.3987727 4.6455728 3.5059677 7.4710728 2.7735007.6321536-.1693488 1.2347536-.4341994 1.7869804-.7854013l11.1011416-7.0748584c1.8248464-1.1623038 3.8170829-2.038003 5.9072976-2.5965874 9.3781183-2.4383321 19.2815408 1.2326356 24.8045595 9.1944715 3.3446009 4.6812162 4.6621008 10.5125383 3.6549438 16.176969-.9977626 5.557521-4.2896782 10.4379781-9.0687582 13.4449639l-29.0921969 18.5399773c-1.8264355 1.162711-3.8202259 2.038737-5.9119826 2.597591" fill="#fff"/></svg>

<?xml version="1.0" encoding="UTF-8"?>
<svg width="512px" height="125px" viewBox="0 0 512 125" version="1.1" xmlns="http://www.w3.org/2000/svg" xmlns:xlink="http://www.w3.org/1999/xlink" preserveAspectRatio="xMidYMid">
    <g>
				<path d="M166.662789,96.8652521 C161.241799,97.0016681 155.906467,95.494048 151.358563,92.5406926 C147.109663,89.738738 143.954437,85.5599448 142.42288,80.7062421 L151.738714,77.2836504 C153.029503,80.2650488 155.139008,82.8194601 157.822591,84.6506499 C160.546421,86.4757311 163.764548,87.4213481 167.042718,87.3598996 C170.193935,87.5244667 173.303661,86.5831607 175.834617,84.6986151 C178.067441,82.8239469 179.283299,80.0045628 179.114094,77.0940207 C179.126952,75.7568915 178.817208,74.4363758 178.211122,73.2444277 C177.683793,72.1779357 176.994398,71.1995907 176.167473,70.3442099 C175.121407,69.3920564 173.935056,68.6065361 172.650066,68.0152234 C171.06506,67.2243563 169.750257,66.6223008 168.705658,66.2090569 C167.659944,65.7984902 166.123274,65.244028 164.09565,64.5456704 C161.559819,63.6589474 159.658577,62.9621515 158.391926,62.4552826 C156.675492,61.7247955 155.00853,60.8831358 153.401655,59.9356626 C151.672298,59.0181319 150.100008,57.831186 148.743793,56.4193715 C147.570361,55.0408707 146.623865,53.4843506 145.93984,51.8082482 C143.248133,45.2551299 145.046995,37.7149462 150.40718,33.0827685 C154.210035,29.7243162 159.374876,28.0446438 165.901705,28.0446438 C171.350545,28.0446438 175.833836,29.2486804 179.351577,31.6567536 C182.765961,33.9267845 185.272901,37.3256663 186.433351,41.258148 L177.308039,44.2994726 C176.391279,42.2399675 174.843137,40.5254831 172.887549,39.4040164 C170.522561,38.0920192 167.844122,37.4509418 165.141402,37.5499963 C162.490539,37.3979331 159.864627,38.1338949 157.678918,39.6414996 C155.86745,41.045456 154.855977,43.2457338 154.96978,45.5347423 C154.985883,47.2839014 155.7461,48.9434374 157.060168,50.098012 C158.323535,51.3414603 159.806022,52.3404754 161.432804,53.0446334 C162.954601,53.6785169 165.26797,54.5339696 168.372914,55.6109916 C170.272705,56.3092748 171.682286,56.8321692 172.601655,57.1796748 C173.521024,57.5271804 174.867803,58.1132475 176.641993,58.9378761 C178.064317,59.5673021 179.431482,60.3146329 180.729181,61.1720478 C181.891202,62.0078604 183.002115,62.9125265 184.055954,63.8811859 C185.201872,64.8751352 186.181035,66.0463652 186.956171,67.3502926 C187.694068,68.702845 188.268193,70.138494 188.666408,71.626887 C189.151764,73.3757435 189.392023,75.1835056 189.380716,76.9984251 C189.380716,83.2096507 187.257199,88.0730929 183.010983,91.5887519 C178.765138,95.1068649 173.31574,96.8656983 166.662789,96.8652521 Z M227.592016,95.7247972 L204.778345,29.1850987 L215.425379,29.1850987 L230.538638,75.572968 C231.374392,78.0676265 232.072609,80.6062713 232.630141,83.1774508 C233.186725,80.6060384 233.884957,78.0673418 234.721644,75.572968 L249.645385,29.1850987 L260.1966,29.1850987 L237.477632,95.7247972 L227.592016,95.7247972 Z M280.346979,95.7247972 L280.346979,29.1855449 L321.601798,29.1855449 L321.601798,38.5014909 L290.233599,38.5014909 L290.233599,56.7520042 L310.479351,56.7520042 L310.479351,66.0679502 L290.233599,66.0679502 L290.233599,86.4088513 L323.692297,86.4088513 L323.692297,95.7247972 L280.346979,95.7247972 Z M348.881358,95.7249088 L348.881358,29.1855449 L358.76809,29.1855449 L358.76809,86.2194447 L391.276743,86.2194447 L391.276743,95.7249088 L348.881358,95.7249088 Z M428.536958,38.6908974 L428.536958,95.7247972 L418.650338,95.7247972 L418.650338,38.6908974 L399.830601,38.6908974 L399.830601,29.1855449 L447.35781,29.1855449 L447.35781,38.691009 L428.536958,38.6908974 Z M467.794083,95.7247972 L467.794083,29.1855449 L509.049013,29.1855449 L509.049013,38.5014909 L477.681372,38.5014909 L477.681372,56.7520042 L497.927124,56.7520042 L497.927124,66.0679502 L477.681372,66.0679502 L477.681372,86.4088513 L511.139959,86.4088513 L511.139959,95.7247972 L467.794083,95.7247972 Z" fill="#4A4A55"/>
				<g>
						<path d="M97.328731,16.5299981 C85.7278595,-0.0738607319 62.8161384,-4.99530735 46.2498708,5.55958938 L17.1554429,24.1028016 C9.20812603,29.1025442 3.73410842,37.2183127 2.07576016,46.4599118 C0.687952111,54.1587061 1.90780363,62.1004592 5.54218979,69.0278456 C3.05180668,72.8056655 1.35327207,77.0492129 0.54924164,81.5020173 C-1.1251842,90.9210393 1.06502639,100.617482 6.62542116,108.402319 C18.2287467,125.007739 41.1406909,129.927067 57.7043928,119.372728 L86.7987092,100.829515 C94.7465188,95.8302814 100.2207,87.7142704 101.878392,78.4724051 C103.265828,70.7736512 102.046778,62.8320668 98.4140817,55.9039136 C100.903777,52.1261601 102.601595,47.882792 103.40491,43.4302996 C105.08043,34.0112524 102.890124,24.3143877 97.328731,16.5299981" fill="#FF3E00"/>
						<path d="M43.4074342,109.964532 C34.0295442,112.402682 24.1264316,108.731774 18.603544,100.770172 C15.2589133,96.0889271 13.9414121,90.2575586 14.9486002,84.5930918 C15.1174117,83.6724902 15.3497237,82.7646731 15.6438717,81.8761454 L16.1917898,80.2053968 L17.6822787,81.300229 C21.1247332,83.8295831 24.9737301,85.7526858 29.0634029,86.9866639 L30.1447379,87.3147231 L30.0452382,88.3939388 C29.9130609,89.9292554 30.3287849,91.4617831 31.2187109,92.7198369 C32.8808176,95.1181575 35.8626213,96.224888 38.686995,95.4917759 C39.3192626,95.3227515 39.9219106,95.0578798 40.4739754,94.7063746 L69.5685148,76.1652818 C71.0079678,75.2588653 72.0000189,73.789025 72.3021933,72.115016 C72.6037855,70.4077349 72.2068502,68.6508664 71.2005567,67.2390804 C69.5374727,64.8403078 66.5549839,63.7331128 63.7294839,64.4655798 C63.0980061,64.6345959 62.4961198,64.8992754 61.9447345,65.2504234 L50.8421427,72.3279589 C49.0165061,73.4887321 47.0241805,74.3636567 44.9341758,74.9224268 C35.5560209,77.3608445 25.6525188,73.6898639 20.1295048,65.7279554 C16.7849039,61.0467391 15.467404,55.2154171 16.474561,49.5509863 C17.4716965,43.9937649 20.7638426,39.1137354 25.5433192,36.1081419 L54.6359623,17.5654874 C56.4623978,16.4027763 58.4561882,15.52675 60.5479449,14.9678961 C69.9259048,12.5296439 79.829138,16.2005629 85.3520582,24.162256 C88.6966419,28.8435224 90.0141387,34.674871 89.007002,40.3393367 C88.8374625,41.2597784 88.6051632,42.1675458 88.3117305,43.0562831 L87.7638124,44.7270316 L86.2739928,43.6338726 C82.8318069,41.1030285 78.9824328,39.1790394 74.8920878,37.9449837 L73.8108643,37.6168129 L73.9103641,36.5375972 C74.0414729,35.0024116 73.6258456,33.4702799 72.7368913,32.2118107 C71.0747847,29.8134901 68.0929809,28.7067596 65.2686072,29.4398717 C64.6363397,29.6088961 64.0336917,29.8737678 63.4816268,30.225273 L34.3865297,48.7671467 C32.9468269,49.6729903 31.9551236,51.1432151 31.6545244,52.8174125 C31.3510658,54.5246133 31.7473342,56.2821118 32.7540416,57.6939057 C34.4171256,60.0926784 37.3996144,61.1998734 40.2251144,60.4674064 C40.857268,60.2980576 41.459868,60.033207 42.0120948,59.6820051 L53.1132364,52.6071467 C54.9380828,51.4448429 56.9303193,50.5691437 59.020534,50.0105593 C68.3986523,47.5722272 78.3020748,51.2431949 83.8250935,59.2050308 C87.1696944,63.886247 88.4871943,69.7175691 87.4800373,75.3819998 C86.4822747,80.9395208 83.1903591,85.8199779 78.4112791,88.8269637 L49.3190822,107.366941 C47.4926467,108.529652 45.4988563,109.405678 43.4070996,109.964532" fill="#FFFFFF"/>
				</g>
    </g>
</svg>
